icon/lg/asana-icon.svg

<?xml version="1.0" encoding="UTF-8"?>
<svg viewBox="0 0 256 237" version="1.1" xmlns="http://www.w3.org/2000/svg" preserveAspectRatio="xMidYMid" height="1em" width="1em">
  <g>
    <path d="M200.324957,125.270044 C169.575962,125.270044 144.649915,150.19729 144.649915,180.947483 C144.649915,211.696478 169.575962,236.623724 200.324957,236.623724 C231.073952,236.623724 256,211.696478 256,180.947483 C256,150.19729 231.073952,125.270044 200.324957,125.270044 L200.324957,125.270044 Z M55.6754021,125.274837 C24.9270063,125.274837 0,150.19729 0,180.947483 C0,211.696478 24.9270063,236.623724 55.6754021,236.623724 C86.425116,236.623724 111.35332,211.696478 111.35332,180.947483 C111.35332,150.19729 86.425116,125.274837 55.6754021,125.274837 L55.6754021,125.274837 Z M183.674444,55.674204 C183.674444,86.425116 158.748396,111.354638 128.000599,111.354638 C97.2505258,111.354638 72.3247177,86.425116 72.3247177,55.674204 C72.3247177,24.9294026 97.2505258,0 128.000599,0 C158.748396,0 183.674444,24.9294026 183.674444,55.674204 L183.674444,55.674204 Z" fill="#F06A6A"/>
  </g>
</svg>

<svg width="256" height="237" xmlns="http://www.w3.org/2000/svg" preserveAspectRatio="xMidYMid"><path d="M200.325 125.27c-30.749 0-55.675 24.927-55.675 55.677s24.926 55.677 55.675 55.677S256 211.696 256 180.947c0-30.75-24.926-55.677-55.675-55.677Zm-144.65.005C24.927 125.275 0 150.197 0 180.947c0 30.75 24.927 55.677 55.675 55.677 30.75 0 55.678-24.928 55.678-55.677 0-30.75-24.928-55.672-55.678-55.672Zm128-69.6c0 30.75-24.927 55.68-55.674 55.68-30.75 0-55.676-24.93-55.676-55.68C72.325 24.928 97.25 0 128 0c30.747 0 55.673 24.93 55.673 55.674Z" fill="#F06A6A"/></svg>
